source/img/heart.svg

<svg width="31" height="27" viewBox="0 0 31 27" fill="none" xmlns="http://www.w3.org/2000/svg">
<path d="M3.52914 16.9207L3.52789 16.919C1.89742 14.7951 0.746534 12.2822 0.531249 9.67392C0.149029 4.93272 3.26968 0.5 8.2286 0.5C11.1675 0.5 13.7282 2.08465 15.091 4.46163L15.5303 5.22778L15.9612 4.45692C17.272 2.11224 19.8534 0.524782 22.7959 0.524782C27.7768 0.524782 30.8506 4.95387 30.4683 9.69822C30.2535 12.3031 29.0801 14.7918 27.4701 16.921C25.5662 19.4143 23.1651 21.387 20.5837 23.2087L20.5782 23.2125L20.5522 23.2306L20.4522 23.2999L20.0845 23.5549L18.8722 24.396C17.926 25.0526 16.8016 25.8333 16.0891 26.3291C15.7662 26.5532 15.3164 26.5618 14.9555 26.3257C14.242 25.8291 13.1138 25.0502 12.1636 24.3951C11.6872 24.0667 11.2553 23.7692 10.9425 23.5539L10.5719 23.2989L10.4711 23.2295L10.4449 23.2115L10.4384 23.207C7.85549 21.384 5.40655 19.3872 3.52914 16.9207Z" fill="#FC9B09" stroke="#FC9B09"/>
</svg>

<svg width="31" height="27" fill="none" xmlns="http://www.w3.org/2000/svg"><path d="M3.53 16.92l-.002-.001C1.898 14.795.747 12.282.53 9.674.15 4.933 3.27.5 8.23.5c2.939 0 5.5 1.585 6.862 3.962l.44.766.43-.771c1.31-2.345 3.891-3.932 6.834-3.932 4.98 0 8.055 4.429 7.672 9.173-.215 2.605-1.388 5.094-2.998 7.223-1.904 2.493-4.305 4.466-6.886 6.288l-.006.003-.026.019-.1.069-.368.255-1.212.841-2.783 1.933a1.017 1.017 0 01-1.133-.003 898.191 898.191 0 00-4.013-2.772l-.371-.255-.1-.07-.027-.017-.007-.005c-2.583-1.823-5.031-3.82-6.909-6.286z" fill="#FC9B09" stroke="#FC9B09"/></svg>
